X: 31
T:LES ENDIVES
M:4/4
L:1/8
Q:1/4=75
K:G 
|BB/2A/2GG ABc2|A/2B/2A/2G/2FF/2G/2 AcBG|BB/2A/2GG ABc2|A/2B/2A/2G/2FF/2
G/2 AFG2|!
d/2c/2d/2e/2dd B/2A/2B/2c/2BB|A/2B/2c/2d/2f3/2e/2 fed2|d/2c/2d/2e/2dd B/
2A/2B/2c/2BB|A/2B/2c/2d/2f3/2e/2 d/2c/2B/2A/2G2|
